app/images/registration.svg

<svg width="28" height="29" viewBox="0 0 28 29" fill="none" xmlns="http://www.w3.org/2000/svg">
<path d="M2 15C2 14.4477 1.55228 14 1 14C0.447715 14 0 14.4477 0 15H2ZM14 1C13.4477 1 13 1.44772 13 2C13 2.55228 13.4477 3 14 3V1ZM26 15C26 21.6274 20.6274 27 14 27V29C21.732 29 28 22.732 28 15H26ZM14 27C7.37258 27 2 21.6274 2 15H0C0 22.732 6.26801 29 14 29V27ZM14 3C20.6274 3 26 8.37258 26 15H28C28 7.26801 21.732 1 14 1V3Z" fill="#FFFFFF"/>
<line x1="5.5" y1="1" x2="5.5" y2="10" stroke="#FFFFFF" stroke-width="2" stroke-linecap="round"/>
<line x1="1" y1="5.5" x2="10" y2="5.5" stroke="#FFFFFF" stroke-width="2" stroke-linecap="round"/>
<path d="M12.0806 16.0864C12.0175 15.96 11.9304 15.7856 11.847 15.6299C11.8054 15.5523 11.7595 15.4695 11.7139 15.3944C11.6815 15.3411 11.6056 15.2169 11.5037 15.1091L11.5038 15.1091L11.4945 15.0995C10.9839 14.5735 10.6711 14.1507 10.5779 13.6805L10.5777 13.6791C10.5247 13.4139 10.5341 13.2589 10.5487 13.1713C10.563 13.0855 10.59 13.0148 10.6451 12.9038L10.7414 12.71L10.749 12.4937L10.7641 12.0605L10.7651 12.0318L10.7645 12.003C10.7562 11.6371 10.7483 11.2673 10.764 10.9248C10.7803 10.5665 10.8199 10.3283 10.8657 10.2006L10.8657 10.2006L10.8675 10.1953C11.3288 8.88532 12.7685 8.06415 13.988 8.00051C14.5412 8.01464 14.9865 8.14023 15.4563 8.40174L15.4563 8.40175L15.4612 8.40442C15.6344 8.4996 15.8305 8.54257 15.8936 8.5564C15.8961 8.55694 15.8983 8.55744 15.9004 8.55789C15.9979 8.57942 16.1002 8.59727 16.166 8.60876L16.1679 8.60909L16.1679 8.6091C16.3537 8.64154 16.4672 8.66379 16.5636 8.6984C16.6483 8.72881 16.6716 8.75307 16.6774 8.75954L16.6789 8.76121C16.874 8.97789 17.0108 9.23401 17.0291 10.057L17.0316 10.1697L17.0591 10.279C17.2004 10.8399 17.228 11.68 17.228 12.46V12.7137L17.3489 12.9366C17.4025 13.0354 17.4276 13.1002 17.441 13.1785C17.455 13.2612 17.4646 13.4132 17.4115 13.6806C17.3173 14.151 17.0035 14.5731 16.5014 15.0927L16.5013 15.0927L16.4945 15.0999C16.3927 15.2073 16.317 15.329 16.2808 15.3883C16.2334 15.4659 16.1866 15.5505 16.1448 15.629C16.0613 15.7856 15.9757 15.9596 15.9141 16.0847L15.9132 16.0864L15.9127 16.0875C15.7403 16.439 15.6197 16.6793 15.5068 16.8426L15.3294 17.0992V17.4112V18.0148C15.3294 18.7379 15.8194 19.4278 16.5917 19.5828L19.1383 20.1092C19.3732 20.1601 19.5948 20.2434 19.7955 20.3527C18.2652 21.9151 16.1756 22.8 13.9999 22.8C11.8247 22.8 9.73609 21.9145 8.20458 20.3526C8.40354 20.2447 8.6241 20.1618 8.85847 20.1101L11.4067 19.5838C12.1728 19.4284 12.6703 18.7451 12.6703 18.016V17.4124V17.0991L12.4916 16.8418C12.3777 16.6779 12.2563 16.4383 12.0806 16.0864ZM12.0806 16.0864L11.1858 16.5328L12.0804 16.0859C12.0804 16.0861 12.0805 16.0862 12.0806 16.0864Z" fill="#FFFFFF" stroke="#FFFFFF" stroke-width="2"/>
</svg>

<svg width="28" height="29" fill="none" xmlns="http://www.w3.org/2000/svg"><path d="M2 15a1 1 0 10-2 0h2zM14 1a1 1 0 100 2V1zm12 14c0 6.627-5.373 12-12 12v2c7.732 0 14-6.268 14-14h-2zM14 27C7.373 27 2 21.627 2 15H0c0 7.732 6.268 14 14 14v-2zm0-24c6.627 0 12 5.373 12 12h2c0-7.732-6.268-14-14-14v2z" fill="#FFF"/><path stroke="#FFF" stroke-width="2" stroke-linecap="round" d="M5.5 1v9M1 5.5h9"/><path d="M12.08 16.086c-.063-.126-.15-.3-.233-.456a5.177 5.177 0 00-.133-.236 1.719 1.719 0 00-.21-.285h0l-.01-.01c-.51-.526-.823-.948-.916-1.418v-.002c-.053-.265-.044-.42-.03-.508a.9.9 0 01.097-.267l.096-.194.008-.216.015-.434.001-.028v-.029a16.154 16.154 0 01-.001-1.078c.016-.359.056-.597.102-.724h0l.002-.006c.46-1.31 1.9-2.13 3.12-2.194.553.014.998.14 1.468.4h0l.005.003c.173.096.37.139.433.152l.006.002c.098.021.2.04.266.05l.002.001h0c.186.033.3.055.396.09.084.03.108.054.113.06l.002.002c.195.217.332.473.35 1.296l.003.113.027.109c.141.56.169 1.401.169 2.181v.254l.12.223a.737.737 0 01.093.242c.014.082.024.234-.03.502-.094.47-.408.892-.91 1.412h0l-.007.007c-.101.107-.177.229-.213.288a4.791 4.791 0 00-.136.241c-.084.157-.17.33-.23.456l-.002.001v.002c-.173.351-.293.591-.406.755l-.178.256V18.015c0 .723.49 1.413 1.263 1.568l2.546.526c.235.051.457.134.657.244A8.121 8.121 0 0114 22.8a8.126 8.126 0 01-5.795-2.447c.199-.108.42-.191.653-.243l2.549-.526c.766-.156 1.263-.839 1.263-1.568v-.917l-.178-.257c-.114-.164-.236-.404-.411-.756zm0 0l-.894.447.894-.447s0 0 0 0z" fill="#FFF" stroke="#FFF" stroke-width="2"/></svg>
